!!!OTL: 471. Die Thraene.
!!!ARE: Europa, Mitteleuropa, Deutschland, Nassau, Rheinland; Elsass
!!!SCT: B0471
!!!TXL: @@DE
!!!YEM: Copyright 1995, estate of Helmut Schaffrath.
**kern	**text
*ICvox	*
*Ivox	*
*clefG2	*
*M4/4	*
*met(c)	*
*k[b-]	*
*F:	*
!LO:TX:a:t=Ruhig.	!
{8c	Ʒer-
8f	-drück
8g	die
=1	=1
4.a	Thrä-
8a	-ne
8a	nicht
8cc	in
8b-	dei-
8a	-nem
=2	=2
4cc	Au-
4g	-ge,
8r}	.
{8b-	du
8a	haſt
8g	die
=3	=3
4.f	Thrä-
8f	-ne
8e	ja
8c	um
8d	mich
8e	ge-
=4	=4
2f	-weint!
8r}	.
{8c	Ver-
8f	-gönn'
8g	mit,
=5	=5
4.a	daß
8a	ich
8a	die-
8cc	-ſe
8b-	Per-
8a	-le
=6	=6
4cc	ſau-
4g	-ge,
8r}	.
{8b-	daß
8a	ſie
8g	mit
=7	=7
4.f	mei-
8f	-nem
8e	Lip-
8c	-pen
8d	ſich
8e	ver-
=8	=8
2f	-eint!
8r}	.
{8g	Wie
8g	macht
8g	die
=9	=9
4.a	Thrä-
8a	-ne
8g	dich
8g	ſo
8f	wun-
8d	-der-
=10	=10
(<4c	-ſchön
8eL	.
8gJ	.
8cc;)}	,
{8g	ich
8e	möcht'
8cc	dich
=11	=11
4.bn	e-
8a	-wig.
8g	e-
8g	-wig
8f	wei-
8d	-nen
=12	=12
!LO:N:vis=4	!
2c	ſehn!
8r}	.
{8c	Ʒer-
8f	-drück
8g	die
=13	=13
4.a	Thrä-
8a	-ne
8a	nicht
8cc	in
8b-	dei-
8a	-nem
=14	=14
4cc	Au-
4g	-ge,
8r}	.
{8b-	du
8a	haſt
8g	die
=15	=15
4.f	Thrä-
8f	-ne
8e	ja
8c	um
8d	mich
8e	ge-
=16	=16
2f	-weint!
8r}	.
==;	==;
!!!AGN: Liebes - Lied, Leid, Klage
!!!GTL: Liebeslieder - Liebesleid
!!!ONB: ESAC (Essen Associative Code) Database: BOEHME
!!!AMT: simple quadruple
!!!AIN: vox
!!!EED: Helmut Schaffrath
!!!EEV: 1.0
!!!RDF**kern: < = below
!!Aus Volksmund im Elſaß. 1889. Ebenſo im Nauſſauiſchen und am Rhein.
!!@@COMMENT:"Gedicht von Karl Herloßſohn ſum 1840). Mel. hier eine Umbildung der Gumbert'ſchen Fr. Abt hat dieſen Text komponirt."
!!@@END:
!!!Text: K. Herloßsohn
!!!URL-scan: https://archive.org/details/BoehmeVtLieder1895/page/n379/mode/2up
!!!ENC: Anna Maria Matuszewska
!!!EEV: 2024/10/07
*-	*-
